assets/images/fundodiabetes.svg

<svg width="304" height="638" viewBox="0 0 304 638" fill="none" xmlns="http://www.w3.org/2000/svg">
<path d="M-128.886 523.954C-128.886 523.954 -90.3039 577.202 -56.9999 597.818C-13.0862 625.001 21.6338 623.368 63.3192 621.241C105.005 619.114 141.354 599.572 193.902 616.117C241.521 631.11 274.605 655.097 306.988 689.694" stroke="#8EF2FF" stroke-width="39"/>
<path d="M-136.16 520.969C-136.16 520.969 -82.471 576.833 -40.9287 594.158C13.8478 617.004 52.7753 606.88 99.4808 594.523C146.186 582.166 183.562 549.832 246.081 557.689C302.736 564.808 344.667 586.295 387.818 620.878" stroke="#8EF2FF" stroke-width="27"/>
<path d="M174.855 586.215C178.673 587.335 183.491 590.155 187.191 589.576C188.921 589.306 190.565 589.201 192.271 588.781C199.456 587.013 206.374 584.83 214.32 585.278C221.632 585.69 228.413 587.435 235.718 589.991C242.455 592.347 248.708 594.209 255.378 594.344C262.341 594.485 268.711 592.809 275.915 593.835C278.221 594.164 280.559 594.124 282.861 594.619C285.225 595.127 287.501 596.061 289.852 596.632C291.306 596.985 305.24 601.097 305.19 602.483C305.092 605.249 301.13 607.647 299.198 608.572C295.381 610.398 291.071 611.379 286.762 612.113C277.658 613.662 269.2 615.781 259.112 611.774C252.39 609.103 245.679 605.323 239.341 601.353C233.566 597.735 228.231 593.762 222.033 591.39C219.666 590.485 216.467 588.867 214.062 588.741C212.799 588.675 211.637 588.489 212.996 589.902C217.892 594.993 225.528 598.808 231.495 601.738C235.882 603.891 240.27 605.804 244.75 607.396C248.992 608.903 253.415 609.686 257.519 611.956C262.233 614.564 266.17 618.249 270.577 621.459C273.153 623.335 276.246 625.049 278.591 627.267C279.778 628.39 280.565 627.555 281.778 627.073C283.674 626.319 285.539 625.565 287.492 624.981" stroke="#8EF2FF" stroke-width="37" stroke-linecap="round"/>
<path d="M163.59 599.931C167.409 601.051 172.227 603.87 175.926 603.291C177.657 603.021 179.3 602.916 181.006 602.497C188.191 600.728 195.109 598.545 203.055 598.993C210.368 599.405 217.148 601.15 224.454 603.706C231.19 606.063 237.443 607.925 244.114 608.059C251.076 608.2 257.446 606.524 264.65 607.551C266.956 607.879 269.295 607.84 271.597 608.334C273.961 608.842 276.236 609.777 278.588 610.348C280.041 610.701 293.975 614.813 293.926 616.198C293.827 618.964 289.866 621.363 287.933 622.287C284.117 624.113 279.806 625.095 275.498 625.828C266.394 627.378 257.935 629.496 247.847 625.489C241.125 622.819 234.415 619.038 228.077 615.068C222.301 611.45 216.966 607.477 210.768 605.106C208.401 604.2 205.202 602.582 202.798 602.456C201.535 602.39 200.372 602.204 201.731 603.617C206.627 608.708 214.264 612.524 220.231 615.453C224.617 617.606 229.006 619.519 233.486 621.111C237.727 622.618 242.151 623.401 246.255 625.671C250.969 628.28 254.906 631.965 259.312 635.174C261.888 637.05 264.981 638.764 267.326 640.983C268.513 642.106 269.301 641.27 270.514 640.788C272.41 640.035 274.274 639.28 276.228 638.697" stroke="#8EF2FF" stroke-width="37" stroke-linecap="round"/>
<path d="M292.006 640.737C292.684 639.895 293.433 639.126 294.122 638.319C294.451 637.934 294.584 637.449 294.957 637.094C295.453 636.622 295.854 636.096 296.387 635.659C297.676 634.604 299.151 633.869 300.677 633.16C301.316 632.863 301.947 632.372 302.631 632.175C303.167 632.021 303.712 631.359 304.273 631.364" stroke="#8EF2FF" stroke-width="37" stroke-linecap="round"/>
<path d="M298.536 637.043C297.523 622.423 303.934 617.002 310.698 611.461C315.356 607.645 320.014 603.829 324.672 600.013" stroke="#8EF2FF" stroke-width="37" stroke-linecap="round"/>
<path d="M184.36 585.006C206.177 563.659 230.043 566.456 254.931 569.648C272.068 571.846 289.206 574.044 306.344 576.242" stroke="#8EF2FF" stroke-width="37" stroke-linecap="round"/>
<path d="M130.074 602.496C157.507 578.096 187.288 581.61 218.341 585.592C239.723 588.335 261.106 591.077 282.489 593.819" stroke="#8EF2FF" stroke-width="37" stroke-linecap="round"/>
<path d="M-130.517 538.011C-130.517 538.011 -89.2011 589.25 -55.1436 607.817C-10.2364 632.298 23.803 628.241 64.6607 623.202C105.518 618.163 140.024 595.861 192.748 608.974C240.527 620.857 274.581 642.852 308.619 675.638" stroke="#8EF2FF"/>
<path d="M-39.4258 557.973C-39.4258 557.973 -3.48612 607.441 27.2863 626.775C67.862 652.268 99.7138 651.106 137.954 649.558C176.194 648.011 209.364 630.356 257.759 646.128C301.616 660.421 332.219 682.86 362.285 715.074" stroke="#00D287" stroke-width="39"/>
<path d="M-46.1319 555.15C-46.1319 555.15 3.69973 607.178 42.0012 623.561C92.5044 645.162 128.134 636.215 170.881 625.287C213.627 614.358 247.613 584.922 305.074 592.783C357.146 599.908 395.846 620.13 435.794 652.437" stroke="#00D287" stroke-width="27"/>
<path d="M239.981 618.375C243.497 619.445 247.947 622.092 251.337 621.595C252.922 621.363 254.43 621.283 255.992 620.913C262.569 619.354 268.897 617.41 276.195 617.901C282.911 618.354 289.152 620.029 295.882 622.458C302.089 624.697 307.847 626.475 313.97 626.665C320.362 626.864 326.193 625.382 332.815 626.4C334.935 626.726 337.081 626.712 339.198 627.191C341.374 627.683 343.471 628.566 345.635 629.116C346.973 629.456 359.803 633.384 359.771 634.661C359.708 637.21 356.096 639.382 354.331 640.215C350.846 641.86 346.9 642.723 342.952 643.356C334.612 644.694 326.869 646.563 317.57 642.769C311.374 640.242 305.177 636.69 299.32 632.968C293.983 629.575 289.047 625.86 283.335 623.612C281.153 622.754 278.201 621.231 275.993 621.091C274.833 621.018 273.764 620.835 275.026 622.151C279.57 626.892 286.616 630.485 292.123 633.245C296.17 635.273 300.217 637.08 304.345 638.592C308.253 640.023 312.32 640.788 316.11 642.922C320.462 645.373 324.113 648.809 328.189 651.811C330.572 653.566 333.428 655.177 335.602 657.245C336.703 658.292 337.417 657.53 338.526 657.097C340.259 656.421 341.962 655.744 343.75 655.226" stroke="#00D287" stroke-width="37" stroke-linecap="round"/>
<path d="M229.778 630.907C233.294 631.977 237.744 634.624 241.134 634.127C242.719 633.895 244.227 633.815 245.788 633.445C252.366 631.886 258.694 629.942 265.992 630.433C272.707 630.886 278.948 632.561 285.679 634.99C291.886 637.229 297.643 639.007 303.767 639.197C310.159 639.396 315.989 637.914 322.612 638.932C324.732 639.258 326.877 639.244 328.995 639.723C331.17 640.215 333.268 641.098 335.432 641.648C336.77 641.988 349.6 645.916 349.568 647.193C349.505 649.742 345.893 651.914 344.128 652.747C340.643 654.392 336.696 655.255 332.749 655.888C324.409 657.226 316.665 659.095 307.366 655.301C301.17 652.774 294.974 649.222 289.117 645.5C283.78 642.107 278.844 638.392 273.131 636.144C270.95 635.286 267.998 633.763 265.789 633.623C264.63 633.55 263.561 633.367 264.822 634.683C269.366 639.424 276.413 643.017 281.919 645.777C285.967 647.805 290.014 649.612 294.142 651.124C298.05 652.555 302.117 653.32 305.906 655.454C310.259 657.905 313.909 661.341 317.986 664.343C320.369 666.098 323.225 667.709 325.399 669.777C326.5 670.824 327.214 670.062 328.323 669.629C330.055 668.953 331.759 668.276 333.547 667.758" stroke="#00D287" stroke-width="37" stroke-linecap="round"/>
<path d="M248.693 617.354C268.507 597.892 290.44 600.707 313.315 603.895C329.067 606.091 344.818 608.287 360.57 610.483" stroke="#00D287" stroke-width="37" stroke-linecap="round"/>
<path d="M199.039 632.939C223.978 610.718 251.347 614.252 279.888 618.231C299.542 620.971 319.196 623.711 338.849 626.45" stroke="#00D287" stroke-width="37" stroke-linecap="round"/>
<path d="M-40.7843 570.915C-40.7843 570.915 -2.35457 618.558 29.0892 636.01C70.5499 659.023 101.753 655.62 139.205 651.379C176.656 647.139 208.107 626.922 256.63 639.532C300.601 650.959 332.076 671.572 363.643 702.132" stroke="#00D287"/>
<path d="M370.935 74.6376C370.935 74.6376 329.876 34.1587 296.092 24.4159C251.546 11.5694 217.84 24.4014 177.383 39.9724C136.926 55.5434 102.806 86.7046 50.5477 87.2208C3.19065 87.6886 -30.5986 74.5233 -64.4005 50.5839" stroke="#7CF0FF" stroke-width="27"/>
<path d="M108.441 39.5336C105.227 38.8368 101.216 36.7852 98.0527 37.4969C96.5731 37.8299 95.1721 38.0189 93.7088 38.4747C87.5451 40.3943 81.596 42.643 74.8523 42.7625C68.6468 42.8724 62.9337 41.8382 56.7989 40.1607C51.1421 38.6139 45.8813 37.4494 40.2132 37.7508C34.2966 38.0654 28.8289 39.8574 22.7341 39.4484C20.783 39.3175 18.7934 39.4956 16.8509 39.2259C14.8559 38.9488 12.9493 38.3112 10.9672 37.981C9.74182 37.7769 -1.98239 35.2132 -1.89834 34.0551C-1.73053 31.743 1.71102 29.4979 3.38252 28.6074C6.68365 26.8488 10.3789 25.7631 14.0652 24.8845C21.8536 23.0282 29.1111 20.7379 37.5678 23.4527C43.2028 25.2616 48.7944 27.9971 54.0632 30.9136C58.8649 33.5716 63.2808 36.5526 68.4794 38.1453C70.4648 38.7535 73.1358 39.9039 75.1768 39.8597C76.2485 39.8365 77.2315 39.9195 76.1187 38.8256C72.11 34.8853 65.7324 32.1782 60.7469 30.1062C57.0824 28.5833 53.4085 27.2608 49.6471 26.2115C46.0861 25.2182 42.3485 24.84 38.9277 23.2017C34.9983 21.3198 31.7621 18.492 28.1125 16.0897C25.979 14.6854 23.4009 13.4484 21.4743 11.7447C20.4988 10.882 19.804 11.6273 18.7576 12.1045C17.1225 12.8501 15.5142 13.595 13.8349 14.2024" stroke="#7CF0FF" stroke-width="37" stroke-linecap="round"/>
<path d="M118.436 27.4015C115.223 26.7047 111.212 24.6531 108.048 25.3649C106.569 25.6978 105.168 25.8869 103.704 26.3426C97.5407 28.2622 91.5915 30.5109 84.8479 30.6304C78.6424 30.7403 72.9293 29.7061 66.7944 28.0286C61.1376 26.4818 55.8768 25.3173 50.2087 25.6187C44.2921 25.9333 38.8244 27.7254 32.7296 27.3163C30.7786 27.1854 28.7889 27.3635 26.8464 27.0938C24.8514 26.8168 22.9448 26.1792 20.9627 25.8489C19.7374 25.6448 8.01315 23.0811 8.0972 21.923C8.26501 19.6109 11.7066 17.3658 13.3781 16.4754C16.6792 14.7167 20.3744 13.631 24.0607 12.7524C31.8491 10.8961 39.1067 8.60584 47.5634 11.3206C53.1984 13.1296 58.7899 15.865 64.0588 18.7815C68.8604 21.4395 73.2763 24.4205 78.4749 26.0132C80.4603 26.6215 83.1314 27.7718 85.1724 27.7276C86.2441 27.7044 87.2271 27.7874 86.1142 26.6935C82.1056 22.7532 75.728 20.0461 70.7424 17.9741C67.0779 16.4512 63.404 15.1287 59.6426 14.0795C56.0817 13.0862 52.3441 12.708 48.9233 11.0696C44.9939 9.18775 41.7577 6.35987 38.108 3.9576C35.9746 2.55334 33.3964 1.31635 31.4699 -0.387363C30.4943 -1.25006 29.7996 -0.504807 28.7532 -0.0276152C27.1181 0.718052 25.5097 1.46288 23.8305 2.07028" stroke="#7CF0FF" stroke-width="37" stroke-linecap="round"/>
<path d="M10.4753 1.34783C9.87285 2.09184 9.21333 2.77893 8.60244 3.49453C8.31084 3.83611 8.18355 4.24868 7.85522 4.56775C7.41882 4.99183 7.06227 5.45519 6.59556 5.85242C5.46775 6.81233 4.19051 7.51632 2.87204 8.20177C2.31963 8.48896 1.76808 8.93735 1.18013 9.14382C0.720068 9.30538 0.235785 9.89183 -0.240397 9.9217" stroke="#7CF0FF" stroke-width="37" stroke-linecap="round"/>
<path d="M4.80988 4.8324C5.22715 16.9566 -0.388975 21.8733 -6.30938 26.9123C-10.3862 30.3821 -14.463 33.852 -18.5398 37.3219" stroke="#7CF0FF" stroke-width="37" stroke-linecap="round"/>
<path d="M100.321 41.1313C81.1202 60.279 60.9099 59.4277 39.8433 58.3103C25.3368 57.5407 10.8303 56.7712 -3.67619 56.0017" stroke="#7CF0FF" stroke-width="37" stroke-linecap="round"/>
<path d="M147.016 23.1849C122.946 45.2263 97.7278 44.1439 71.4428 42.7496C53.3429 41.7894 35.2429 40.8293 17.143 39.8692" stroke="#7CF0FF" stroke-width="37" stroke-linecap="round"/>
<path d="M366.655 60.7811C366.655 60.7811 333.077 20.6289 304.68 7.26351C267.236 -10.3597 238.167 -4.86665 203.27 1.86758C168.373 8.60181 138.352 29.3328 93.9161 21.6711C53.6477 14.7279 25.3573 -1.49567 -2.59167 -26.716" stroke="#7CF0FF"/>
<path d="M364.84 72.6002C364.84 72.6002 333.649 30.6039 305.955 15.4836C269.438 -4.45371 239.864 -0.939068 204.351 3.41876C168.839 7.77659 137.335 26.3216 93.1523 15.7879C53.1136 6.24223 25.7093 -11.7021 -0.777122 -38.5352" stroke="#00D287" stroke-width="39"/>
</svg>

<svg xmlns="http://www.w3.org/2000/svg" width="304" height="638" fill="none" viewBox="0 0 304 638"><path stroke="#8ef2ff" stroke-width="39" d="M-128.886 523.954S-90.304 577.202-57 597.818c43.914 27.183 78.634 25.55 120.32 23.423s78.034-21.669 130.582-5.124c47.619 14.993 80.703 38.98 113.086 73.577"/><path stroke="#8ef2ff" stroke-width="27" d="M-136.16 520.969s53.689 55.864 95.231 73.189c54.777 22.846 93.704 12.722 140.41.365 46.705-12.357 84.081-44.691 146.6-36.834 56.655 7.119 98.586 28.606 141.737 63.189"/><path stroke="#8ef2ff" stroke-linecap="round" stroke-width="37" d="M174.855 586.215c3.818 1.12 8.636 3.94 12.336 3.361 1.73-.27 3.374-.375 5.08-.795 7.185-1.768 14.103-3.951 22.049-3.503 7.312.412 14.093 2.157 21.398 4.713 6.737 2.356 12.99 4.218 19.66 4.353 6.963.141 13.333-1.535 20.537-.509 2.306.329 4.644.289 6.946.784 2.364.508 4.64 1.442 6.991 2.013 1.454.353 15.388 4.465 15.338 5.851-.098 2.766-4.06 5.164-5.992 6.089-3.817 1.826-8.127 2.807-12.436 3.541-9.104 1.549-17.562 3.668-27.65-.339-6.722-2.671-13.433-6.451-19.771-10.421-5.775-3.618-11.11-7.591-17.308-9.963-2.367-.905-5.566-2.523-7.971-2.649-1.263-.066-2.425-.252-1.066 1.161 4.896 5.091 12.532 8.906 18.499 11.836 4.387 2.153 8.775 4.066 13.255 5.658 4.242 1.507 8.665 2.29 12.769 4.56 4.714 2.608 8.651 6.293 13.058 9.503 2.576 1.876 5.669 3.59 8.014 5.808 1.187 1.123 1.974.288 3.187-.194 1.896-.754 3.761-1.508 5.714-2.092"/><path stroke="#8ef2ff" stroke-linecap="round" stroke-width="37" d="M163.59 599.931c3.819 1.12 8.637 3.939 12.336 3.36 1.731-.27 3.374-.375 5.08-.794 7.185-1.769 14.103-3.952 22.049-3.504 7.313.412 14.093 2.157 21.399 4.713 6.736 2.357 12.989 4.219 19.66 4.353 6.962.141 13.332-1.535 20.536-.508 2.306.328 4.645.289 6.947.783 2.364.508 4.639 1.443 6.991 2.014 1.453.353 15.387 4.465 15.338 5.85-.099 2.766-4.06 5.165-5.993 6.089-3.816 1.826-8.127 2.808-12.435 3.541-9.104 1.55-17.563 3.668-27.651-.339-6.722-2.67-13.432-6.451-19.77-10.421-5.776-3.618-11.111-7.591-17.309-9.962-2.367-.906-5.566-2.524-7.97-2.65-1.263-.066-2.426-.252-1.067 1.161 4.896 5.091 12.533 8.907 18.5 11.836 4.386 2.153 8.775 4.066 13.255 5.658 4.241 1.507 8.665 2.29 12.769 4.56 4.714 2.609 8.651 6.294 13.057 9.503 2.576 1.876 5.669 3.59 8.014 5.809 1.187 1.123 1.975.287 3.188-.195 1.896-.753 3.76-1.508 5.714-2.091m15.778 2.04c.678-.842 1.427-1.611 2.116-2.418.329-.385.462-.87.835-1.225.496-.472.897-.998 1.43-1.435 1.289-1.055 2.764-1.79 4.29-2.499.639-.297 1.27-.788 1.954-.985.536-.154 1.081-.816 1.642-.811"/><path stroke="#8ef2ff" stroke-linecap="round" stroke-width="37" d="M298.536 637.043c-1.013-14.62 5.398-20.041 12.162-25.582l13.974-11.448M184.36 585.006c21.817-21.347 45.683-18.55 70.571-15.358l51.413 6.594"/><path stroke="#8ef2ff" stroke-linecap="round" stroke-width="37" d="M130.074 602.496c27.433-24.4 57.214-20.886 88.267-16.904l64.148 8.227"/><path stroke="#8ef2ff" d="M-130.517 538.011s41.316 51.239 75.373 69.806c44.908 24.481 78.947 20.424 119.805 15.385 40.857-5.039 75.363-27.341 128.087-14.228 47.779 11.883 81.833 33.878 115.871 66.664"/><path stroke="#00d287" stroke-width="39" d="M-39.426 557.973s35.94 49.468 66.712 68.802c40.576 25.493 72.428 24.331 110.668 22.783s71.41-19.202 119.805-3.43c43.857 14.293 74.46 36.732 104.526 68.946"/><path stroke="#00d287" stroke-width="27" d="M-46.132 555.15S3.7 607.178 42.001 623.561c50.503 21.601 86.133 12.654 128.88 1.726s76.732-40.365 134.193-32.504c52.072 7.125 90.772 27.347 130.72 59.654"/><path stroke="#00d287" stroke-linecap="round" stroke-width="37" d="M239.981 618.375c3.516 1.07 7.966 3.717 11.356 3.22 1.585-.232 3.093-.312 4.655-.682 6.577-1.559 12.905-3.503 20.203-3.012 6.716.453 12.957 2.128 19.687 4.557 6.207 2.239 11.965 4.017 18.088 4.207 6.392.199 12.223-1.283 18.845-.265 2.12.326 4.266.312 6.383.791 2.176.492 4.273 1.375 6.437 1.925 1.338.34 14.168 4.268 14.136 5.545-.063 2.549-3.675 4.721-5.44 5.554-3.485 1.645-7.431 2.508-11.379 3.141-8.34 1.338-16.083 3.207-25.382-.587-6.196-2.527-12.393-6.079-18.25-9.801-5.337-3.393-10.273-7.108-15.985-9.356-2.182-.858-5.134-2.381-7.342-2.521-1.16-.073-2.229-.256-.967 1.06 4.544 4.741 11.59 8.334 17.097 11.094 4.047 2.028 8.094 3.835 12.222 5.347 3.908 1.431 7.975 2.196 11.765 4.33 4.352 2.451 8.003 5.887 12.079 8.889 2.383 1.755 5.239 3.366 7.413 5.434 1.101 1.047 1.815.285 2.924-.148 1.733-.676 3.436-1.353 5.224-1.871"/><path stroke="#00d287" stroke-linecap="round" stroke-width="37" d="M229.778 630.907c3.516 1.07 7.966 3.717 11.356 3.22 1.585-.232 3.093-.312 4.654-.682 6.578-1.559 12.906-3.503 20.204-3.012 6.715.453 12.956 2.128 19.687 4.557 6.207 2.239 11.964 4.017 18.088 4.207 6.392.199 12.222-1.283 18.845-.265 2.12.326 4.265.312 6.383.791 2.175.492 4.273 1.375 6.437 1.925 1.338.34 14.168 4.268 14.136 5.545-.063 2.549-3.675 4.721-5.44 5.554-3.485 1.645-7.432 2.508-11.379 3.141-8.34 1.338-16.084 3.207-25.383-.587-6.196-2.527-12.392-6.079-18.249-9.801-5.337-3.393-10.273-7.108-15.986-9.356-2.181-.858-5.133-2.381-7.342-2.521-1.159-.073-2.228-.256-.967 1.06 4.544 4.741 11.591 8.334 17.097 11.094 4.048 2.028 8.095 3.835 12.223 5.347 3.908 1.431 7.975 2.196 11.764 4.33 4.353 2.451 8.003 5.887 12.08 8.889 2.383 1.755 5.239 3.366 7.413 5.434 1.101 1.047 1.815.285 2.924-.148 1.732-.676 3.436-1.353 5.224-1.871m-84.854-50.404c19.814-19.462 41.747-16.647 64.622-13.459l47.255 6.588"/><path stroke="#00d287" stroke-linecap="round" stroke-width="37" d="M199.039 632.939c24.939-22.221 52.308-18.687 80.849-14.708l58.961 8.219"/><path stroke="#00d287" d="M-40.784 570.915s38.43 47.643 69.873 65.095c41.46 23.013 72.664 19.61 110.116 15.369s68.902-24.457 117.425-11.847c43.971 11.427 75.446 32.04 107.013 62.6"/><path stroke="#7cf0ff" stroke-width="27" d="M370.935 74.638s-41.059-40.48-74.843-50.222c-44.546-12.847-78.252-.015-118.709 15.556S102.806 86.705 50.548 87.221C3.19 87.689-30.6 74.523-64.4 50.584"/><path stroke="#7cf0ff" stroke-linecap="round" stroke-width="37" d="M108.441 39.534c-3.214-.697-7.225-2.749-10.388-2.037-1.48.333-2.88.522-4.344.978-6.164 1.92-12.113 4.168-18.857 4.288-6.205.11-11.918-.925-18.053-2.602-5.657-1.547-10.918-2.712-16.586-2.41-5.916.314-11.384 2.106-17.479 1.697-1.951-.13-3.94.048-5.883-.222-1.995-.277-3.902-.915-5.884-1.245-1.225-.204-12.95-2.768-12.865-3.926.167-2.312 3.609-4.557 5.28-5.448 3.302-1.758 6.997-2.844 10.683-3.722 7.789-1.857 15.046-4.147 23.503-1.432 5.635 1.809 11.226 4.544 16.495 7.46 4.802 2.659 9.218 5.64 14.416 7.232 1.986.608 4.657 1.759 6.698 1.715 1.072-.023 2.054.06.942-1.034-4.009-3.94-10.387-6.648-15.372-8.72-3.665-1.523-7.339-2.845-11.1-3.895-3.56-.993-7.298-1.371-10.72-3.01-3.929-1.881-7.165-4.709-10.814-7.111-2.134-1.405-4.712-2.642-6.639-4.345-.975-.863-1.67-.118-2.716.36-1.636.745-3.244 1.49-4.923 2.097"/><path stroke="#7cf0ff" stroke-linecap="round" stroke-width="37" d="M118.436 27.402c-3.213-.697-7.224-2.749-10.388-2.037-1.479.333-2.88.522-4.344.978-6.163 1.92-12.112 4.168-18.856 4.287-6.206.11-11.919-.924-18.054-2.601-5.656-1.547-10.917-2.712-16.585-2.41-5.917.314-11.385 2.106-17.48 1.697-1.95-.13-3.94.047-5.883-.222-1.995-.277-3.901-.915-5.883-1.245-1.226-.204-12.95-2.768-12.866-3.926.168-2.312 3.61-4.557 5.281-5.448 3.301-1.758 6.996-2.844 10.683-3.723 7.788-1.856 15.046-4.146 23.502-1.431 5.635 1.809 11.227 4.544 16.496 7.46 4.801 2.659 9.217 5.64 14.416 7.232 1.985.608 4.656 1.759 6.697 1.715 1.072-.024 2.055.06.942-1.035-4.008-3.94-10.386-6.647-15.372-8.719-3.664-1.523-7.338-2.845-11.1-3.895-3.56-.993-7.298-1.371-10.719-3.01-3.93-1.881-7.165-4.71-10.815-7.111-2.133-1.405-4.712-2.642-6.638-4.345-.976-.863-1.67-.118-2.717.36-1.635.745-3.243 1.49-4.922 2.097m-13.356-.722c-.602.744-1.262 1.43-1.873 2.147-.291.341-.418.754-.747 1.073-.436.424-.793.887-1.26 1.284-1.127.96-2.404 1.664-3.723 2.35-.552.287-1.104.735-1.692.942-.46.161-.944.748-1.42.778"/><path stroke="#7cf0ff" stroke-linecap="round" stroke-width="37" d="M4.81 4.832c.417 12.125-5.2 17.041-11.12 22.08l-12.23 10.41m118.861 3.809c-19.2 19.148-39.411 18.297-60.478 17.18L-3.677 56"/><path stroke="#7cf0ff" stroke-linecap="round" stroke-width="37" d="M147.016 23.185c-24.07 22.041-49.288 20.959-75.573 19.565l-54.3-2.88"/><path stroke="#7cf0ff" d="M366.655 60.781S333.077 20.63 304.68 7.264c-37.444-17.624-66.513-12.13-101.41-5.396S138.352 29.333 93.916 21.67C53.648 14.728 25.357-1.496-2.592-26.716"/><path stroke="#00d287" stroke-width="39" d="M364.84 72.6s-31.191-41.996-58.885-57.116C269.438-4.454 239.864-.94 204.351 3.419c-35.512 4.358-67.016 22.903-111.199 12.369C53.114 6.242 25.71-11.702-.778-38.535"/></svg>
